X:1
T:Herr, gedenke unser
T:Eduard Grell
T:Herr, gedenke unser
T:CPDL - Creative Commons Attribution Non Commercial 3.0
T:CPDL - Creative Commons Attribution Non Commercial 3.0
C:Eduard Grell
Z:CPDL - Creative Commons Attribution Non Commercial 3.0
%%score [ ( 1 2 ) 3 4 ]
L:1/8
Q:1/4=90
M:4/4
K:D
V:1 treble nm="Sopran\nAlt"
V:2 treble 
V:3 treble-8 nm="Tenor"
V:4 bass nm="Bass"
V:1
 A2 A2 A2 A2 | A4 A2 F2 | G2 FE F2{E} D2 | E6 A2 | G3 F EEed | c2 cc d2 c2 | B2 B2 A3 A | %7
w: Herr, ge- den- ke|un- ser nach|dei- ner Barm- her- zig-|keit, be-|wah- re uns vor der Ge-|walt uns- rer Fein- de|und be- frei- e|
 A2 d2 c2 B2 | B2 (A4 ^G2) | A6!p! z2 ||[M:3/4] z4 A2 | (A2 d2){c} B2 | A4 A2 | A2 Ad cB | %14
w: uns von un- serm|E- len- *|de.|Zu|dir, _ o|Herr, er-|he- be ich mei- ne|
{B} ^A2 A2 A2 | B3 =A GF | E4 E2 | F6 ||[M:4/4] F3 F F2 F2 | (G2 B4 A2 | ^G4 A2 =G2 | F6) G2 | E8 | %23
w: See- le, auf|dich, mein Gott, ver-|trau- e|ich.|Lass mich nicht zu|Schan- * *||* den|wer-|
 F8 |] %24
w: den.|
V:2
 F2 F2 G2 G2 | (G2 FE) F2 D2 | D2 DD D2 D2 | C6 E2 | E3 ^D EEEF | G2 GG F2 F2 | D2 D2 C3 C | %7
w: |||||||
 D2 D2 E2 F2 | E4 D4 | C6 A2 ||[M:3/4] (G2 F2) E2 | F4 F2 | E3 F AG |{G} F2 F2 F2 | (E3 G) FE | %15
w: ||* Zu|dir, _ o|Herr, er-|heb' ich mei- ne|See- le, auf|dich, _ mein _|
 D4 D2 | (D2 C2) B,2 | C6 ||[M:4/4] C3 C D2 D2 | (D4 ^D4 | E8 | E4 D2) D2 | (D4 C4) | D8 |] %24
w: Gott, ver-|trau- * e|ich.|||||||
V:3
 A2 d2 d2 c2 | d4 A2 A2 | B2 AG A2 ^G2 | A6 c2 | B3 B BBBB | B2 BB B2 ^A2 | B2 B2 e3 A | %7
w: Herr, ge- den- ke|un- ser nach|dei- ner Barm- her- zig-|keit, be-|wah- re uns vor der Ge-|walt uns- rer Fein- de|und be- frei- e|
 A2 A2 A2 d2 | (d2 c2) B4 | A6!p! c2 ||[M:3/4] (e2 d2) c2 | d4 d2 | c3 d fe |{e} d2 d2 d2 | %14
w: uns von un- serm|E- * len-|de. Zu|dir, _ o|Herr, er-|heb' ich mei- ne|See- le, auf|
 (c3 e) dc | B4 B2 | B4 B2 | ^A6 ||[M:4/4] ^A3 A B2 =c2 | (B8- | B4 A2 B2 | c2 ^A2 B2) B2 | A8 | %23
w: dich, _ mein _|Gott, ver-|trau- e|ich.|Lass mich nicht zu|Schan-||* * * den|wer-|
 A8 |] %24
w: den.|
V:4
 D,2 D,2 E,2 A,,2 | D,4 D,2 D,2 | D,2 D,D, D,2 B,,2 | A,,6 A,,2 | E,3 F, G,G,G,F, | %5
 E,2 E,E, F,2 F,2 | G,2 G,2 G,3 G, | F,2 F,2 E,2 D,2 | E,4 E,4 | A,,6!p! A,2 ||[M:3/4] A,4 A,2 | %11
 D,4 D,2 | A,3 A, A,A, | D,2 D,2 D,2 | F,4 F,2 | G,4 G,2 | G,4 G,2 | F,6 ||[M:4/4] F,3 F, B,2 A,2 | %19
 (G,4 F,4 | E,2 D,2 C,2 B,,2 | ^A,,2 F,,2 B,,2) G,,2 | A,,8 | D,8 |] %24

